X: 17106
T: Heidi Hendi
R: jig
M: 6/8
K: Eminor
EGB c2 (B|B2) B ABG|FGA B2 B|ABG BFB|
EGB c2 (B|B2) B ABG|FGA BGB|FBG BFB:|
EE/E/E GFE|FGA dDd|BAG FGA|BAG FGF|
EE/E/E GFE|FGA dDd|BAG FGA|BGB FBG:|

